X: 26154
T: McIntyre's Fancy
R: jig
M: 6/8
K: Adorian
|:~c2e AGE|GAB ABA|eag edc|eAB AGE|
cde dcA|~G2G GBd|gea ged|1 cAG A2B:|2 cAG Ace||
|:~a2a ged|edg edc|ABA GAc|dec deg|
aeg dec|ABA GEG|cde ged|1 cAG AcA:|2 cAG A2B||

